X: 34
T:Blodau'r Dyffryn
T:The Flowers of the Vale
M:C|
L:1/8
Q:100
C:Trad
S:51 Welsh Airs
R:?
A:Wales
H:From a facsimile c.1840: A Choice Collection of Fifty-One Welsh Airs
H:adapted for The Harp, Piano-Forte, Harpsichord,
H:Violin, or Flute by Edward Jones
H:"Harper to His Late Majesty King George IV, when
H:Prince of Wales".
Z:brian_martin12345@yahoo.com
K:G
"Expressive"
{BA}G2GA BA/G/ AF|G3 (3e/f/g/ d/e/f/g/ ag/f/|
eg/f/ ed ^cABc|d (3D/F/A/ de dcBA:||
B2c2 de=fd|ecdB (A>B) c/B/c/A/|
=fe d/f/e/d/ e/d/c/B/ A/c/B/A/|d/e/^f/g/a/f/g/e/ dcBA|
(B>A) G/A/B/c/ d>e =f/e/f/d/|eccB AA/B/ c/B/c/A/|
d (3A/B/c/ de d/f/c/e/B/d/A/c/|GBBA G4||
